flags/sh-ta.svg

<svg width="512" height="512" viewBox="0 0 512 512" fill="none" xmlns="http://www.w3.org/2000/svg">
<rect width="512" height="512" fill="var(--flag-palette-navy, #002266)"/>
<rect width="256" height="256" fill="var(--flag-palette-navy, #002266)"/>
<path d="M232 256H256V232L152 128L256 24V0H232L128 104L24 0H0V24L104 128L0 232V256H24L128 152L232 256Z" fill="var(--flag-palette-white, #eeeeee)"/>
<path d="M256 160V96H160V0H96V96H0V160H96V256H160V160H256Z" fill="var(--flag-palette-white, #eeeeee)"/>
<path d="M256 144V112H144V0H112V112H0V144H112V256H144V144H256Z" fill="var(--flag-palette-bright-red, #d80027)"/>
<path d="M0 16V0L96 96H80L0 16Z" fill="var(--flag-palette-bright-red, #d80027)"/>
<path d="M256 240L256 256L160 160L176 160L256 240Z" fill="var(--flag-palette-bright-red, #d80027)"/>
<path d="M16 256L0 256L96 160L96 176L16 256Z" fill="var(--flag-palette-bright-red, #d80027)"/>
<path d="M240 -6.99382e-07L256 0L160 96L160 80L240 -6.99382e-07Z" fill="var(--flag-palette-bright-red, #d80027)"/>
<path d="M336 204L384 124L432 204H336Z" fill="var(--flag-palette-white, #eeeeee)"/>
<path fill-rule="evenodd" clip-rule="evenodd" d="M296.675 358.586C300.384 360.699 304.213 362.7 308.05 364.536L308.644 364.817L307.333 367.721L306.058 370.546L308.883 371.821C320.696 377.159 333.115 381.24 345.797 383.955C358.332 386.638 371.198 388 384.028 388C396.857 388 409.723 386.638 422.262 383.955C434.94 381.24 447.36 377.159 459.177 371.821L462.002 370.546L460.727 367.721L459.416 364.817L460.009 364.536C463.852 362.7 467.68 360.699 471.385 358.587L476 355.954L471.435 353.235C468.196 351.302 464.984 349.254 461.873 347.142C461.753 343.102 461.514 339.048 461.164 335.068L460.741 330.254L456.544 332.647C452.771 334.796 448.86 336.802 444.912 338.611L438.718 341.446L440.494 346.309C422.506 353.539 403.543 357.201 384.028 357.201C364.512 357.201 345.379 353.506 327.317 346.208L329.342 341.441L323.144 338.606C319.2 336.802 315.284 334.796 311.511 332.643L307.268 330.227L306.886 335.095C306.573 339.089 306.375 343.157 306.297 347.207C303.159 349.3 299.919 351.321 296.648 353.221L292 355.927L296.675 358.591L296.675 358.586Z" fill="var(--flag-palette-white, #eeeeee)"/>
<path d="M384 252C410.51 252 432 230.51 432 204C432 177.49 410.51 156 384 156C357.49 156 336 177.49 336 204C336 230.51 357.49 252 384 252Z" fill="var(--flag-palette-light-blue, #338af3)"/>
<path d="M336 204V252L384 284L432 252V204H336Z" fill="var(--flag-palette-light-blue, #338af3)"/>
<path d="M336 204C336 195.163 328.837 188 320 188C311.163 188 304 195.163 304 204V300C304 308.837 311.163 316 320 316C328.837 316 336 308.837 336 300V204Z" fill="var(--flag-palette-gold, #ff9811)"/>
<path d="M464 204C464 195.163 456.837 188 448 188C439.163 188 432 195.163 432 204V300C432 308.837 439.163 316 448 316C456.837 316 464 308.837 464 300V204Z" fill="var(--flag-palette-gold, #ff9811)"/>
<path d="M336 252V281C336 317 384 329 384 329C384 329 432 317 432 281V252H336ZM384 204L368 252H400L384 204Z" fill="var(--flag-palette-white, #eeeeee)"/>
<path d="M368 252L384 300L400 252H368Z" fill="var(--flag-palette-light-blue, #338af3)"/>
</svg>

<svg xmlns="http://www.w3.org/2000/svg" width="512" height="512" fill="none"><g clip-path="url(#a)"><path fill="#026" d="M0 0h512v512H0z"/><path fill="#026" d="M0 0h256v256H0z"/><path fill="#EEE" d="M232 256h24v-24L152 128 256 24V0h-24L128 104 24 0H0v24l104 104L0 232v24h24l104-104z"/><path fill="#EEE" d="M256 160V96h-96V0H96v96H0v64h96v96h64v-96z"/><path fill="var(--flag-palette-bright-red, #d80027)" d="M256 144v-32H144V0h-32v112H0v32h112v112h32V144z"/><path fill="var(--flag-palette-bright-red, #d80027)" d="M0 16V0l96 96H80zm256 224v16l-96-96h16zM16 256H0l96-96v16zM240 0h16l-96 96V80z"/><path fill="#EEE" d="m336 204 48-80 48 80z"/><path fill="#EEE" fill-rule="evenodd" d="M296.7 358.6q5.6 3.1 11.4 6l.5.2-1.3 3-1.2 2.7 2.8 1.3a183 183 0 0 0 150.3 0l2.8-1.3-1.3-2.8-1.3-2.9.6-.3q5.8-2.7 11.4-6l4.6-2.5-4.6-2.8-9.5-6q-.2-6.2-.7-12.1l-.5-4.8-4.2 2.3a149 149 0 0 1-11.6 6l-6.2 2.8 1.8 5a151 151 0 0 1-113.2-.2l2-4.8-6.2-2.8q-5.9-2.7-11.6-6l-4.2-2.4-.4 4.9q-.4 6-.6 12.1l-9.7 6-4.6 2.7z" clip-rule="evenodd"/><path fill="var(--flag-palette-light-blue, #338af3)" d="M384 252a48 48 0 1 0 0-96 48 48 0 0 0 0 96"/><path fill="var(--flag-palette-light-blue, #338af3)" d="M336 204v48l48 32 48-32v-48z"/><path fill="var(--flag-palette-gold, #ff9811)" d="M336 204a16 16 0 1 0-32 0v96a16 16 0 1 0 32 0zm128 0a16 16 0 1 0-32 0v96a16 16 0 1 0 32 0z"/><path fill="#EEE" d="M336 252v29c0 36 48 48 48 48s48-12 48-48v-29zm48-48-16 48h32z"/><path fill="var(--flag-palette-light-blue, #338af3)" d="m368 252 16 48 16-48z"/></g><defs><clipPath id="a"><path fill="#fff" d="M0 0h512v512H0z"/></clipPath></defs></svg>
